X: 2b
T: The Birds In The Tree
M: 4/4
L: 1/8
R: hornpipe
K: G Major
|: GB | 
dBeB dBGd | cBAF G2 AG | E2 Ac BGGA | BGBd gage |
d2 eB dBGd | cBAF GBAG | EAAc BGge | dBAF G2 :|
|: G- GA | 
BGBd gfgb | agef gedc | BGBd g2 gb | agef g2 ga |
bggb agef | gfge dBGE | D2 GA Bdge | dBAF G2 :|
